X:380
T: "Der todte Gast"
N: Z1060
O: Europa, Mitteleuropa, Deutschland, Nord - Deutschland
R: Romanze, Ballade, Tod
M: 4/4
L: 1/8
K: G
G2 | G2ddd2c_e | d2_B2A2
BA | G2FGc2c_B | A4z2
_B2 | A2AAA2FD | G2_B2A2
d2 | c2_BBA2B2 | G4z2

@@@ Tune index: 10138
